svg/vanity_light.svg

<svg xmlns="http://www.w3.org/2000/svg" viewBox="0 0 24 24"><path d="M22 20h-6c0-1.66 1.34-7 3-7s3 5.34 3 7m-10-7c-1.66 0-3 5.34-3 7h6c0-1.66-1.34-7-3-7m-7 0c-1.66 0-3 5.34-3 7h6c0-1.66-1.34-7-3-7m9.82-7c-.56-1.56-2.29-2.36-3.82-1.8-.86.3-1.5.97-1.82 1.8H2v2h2v4h2V8h3.18c.32.85.97 1.5 1.82 1.82V12h2V9.82c.85-.32 1.5-.97 1.82-1.82H18v4h2V8h2V6z"/></svg>

<?xml version="1.0" encoding="UTF-8"?><!DOCTYPE svg PUBLIC "-//W3C//DTD SVG 1.1//EN" "http://www.w3.org/Graphics/SVG/1.1/DTD/svg11.dtd"><svg xmlns="http://www.w3.org/2000/svg" xmlns:xlink="http://www.w3.org/1999/xlink" version="1.1" id="mdi-vanity-light" width="24" height="24" viewBox="0 0 24 24"><path d="M22 20H16C16 18.34 17.34 13 19 13S22 18.34 22 20M12 13C10.34 13 9 18.34 9 20H15C15 18.34 13.66 13 12 13M5 13C3.34 13 2 18.34 2 20H8C8 18.34 6.66 13 5 13M14.82 6C14.26 4.44 12.53 3.64 11 4.2C10.14 4.5 9.5 5.17 9.18 6H2V8H4V12H6V8H9.18C9.5 8.85 10.15 9.5 11 9.82V12H13V9.82C13.85 9.5 14.5 8.85 14.82 8H18V12H20V8H22V6H14.82Z" /></svg>
